HTML/img/Component/Yahtzee.svg

<?xml version="1.0" encoding="UTF-8" standalone="no"?>
<svg
   xmlns:dc="http://purl.org/dc/elements/1.1/"
   xmlns:cc="http://creativecommons.org/ns#"
   xmlns:rdf="http://www.w3.org/1999/02/22-rdf-syntax-ns#"
   xmlns:svg="http://www.w3.org/2000/svg"
   xmlns="http://www.w3.org/2000/svg"
   xmlns:sodipodi="http://sodipodi.sourceforge.net/DTD/sodipodi-0.dtd"
   xmlns:inkscape="http://www.inkscape.org/namespaces/inkscape"
   viewBox="0 0 348 348"
   fill="none"
   id="svg3186"
   version="1.1"
   inkscape:version="0.48.4 r9939"
   width="100%"
   height="100%"
   sodipodi:docname="Yahtzee.svg">
  <metadata
     id="metadata3196">
    <rdf:RDF>
      <cc:Work
         rdf:about="">
        <dc:format>image/svg+xml</dc:format>
        <dc:type
           rdf:resource="http://purl.org/dc/dcmitype/StillImage" />
        <dc:title></dc:title>
      </cc:Work>
    </rdf:RDF>
  </metadata>
  <defs
     id="defs3194" />
  <sodipodi:namedview
     pagecolor="#ffffff"
     bordercolor="#666666"
     borderopacity="1"
     objecttolerance="10"
     gridtolerance="10"
     guidetolerance="10"
     inkscape:pageopacity="0"
     inkscape:pageshadow="2"
     inkscape:window-width="1839"
     inkscape:window-height="1177"
     id="namedview3192"
     showgrid="true"
     inkscape:zoom="2.7586207"
     inkscape:cx="174"
     inkscape:cy="174"
     inkscape:window-x="-8"
     inkscape:window-y="-8"
     inkscape:window-maximized="1"
     inkscape:current-layer="svg3186">
    <inkscape:grid
       type="xygrid"
       id="grid3983"
       empspacing="5"
       visible="true"
       enabled="true"
       snapvisiblegridlinesonly="true"
       spacingx="2.5px"
       spacingy="2.5px" />
  </sodipodi:namedview>
  <path
     d="M5.08 5.776h336.91v337.67H5.08z"
     stroke-width="2"
     stroke="#000"
     id="path3188" />
  <path
     d="M282.734 40.554c0-8.376 6.966-15.165 15.56-15.165 4.126 0 8.084 1.594 11 4.44 2.92 2.842 4.56 6.7 4.56 10.722 0 8.376-6.967 15.165-15.56 15.165-8.594 0-15.56-6.79-15.56-15.166z"
     stroke-width="2"
     stroke="#000"
     id="path3190" />
  <rect
     style="color:#000000;fill:#ffffff;fill-opacity:1;fill-rule:nonzero;stroke:#000000;stroke-width:5;stroke-linecap:butt;stroke-linejoin:miter;stroke-miterlimit:4;stroke-opacity:1;stroke-dasharray:none;stroke-dashoffset:0;marker:none;visibility:visible;display:inline;overflow:visible;enable-background:accumulate"
     id="rect3198"
     width="228.01248"
     height="76.487495"
     x="24.2875"
     y="29"
     ry="0" />
  <g
     style="font-size:64px;font-style:normal;font-variant:normal;font-weight:normal;font-stretch:normal;text-align:start;line-height:125%;letter-spacing:0px;word-spacing:0px;text-anchor:start;fill:#000000;fill-opacity:1;stroke:none;font-family:Showcard Gothic;-inkscape-font-specification:Showcard Gothic"
     id="text3968">
    <path
       d="M 103.10624,60.696869 C 103.1062,64.530228 102.03328,67.926058 99.887489,70.884369 97.991618,73.467719 95.61662,75.321884 92.762489,76.446869 93.366622,77.384382 94.856204,79.35313 97.231239,82.353119 98.418701,83.728126 100.2312,85.540624 102.66874,87.790619 101.68953,88.144788 99.533283,89.040621 96.199989,90.478119 93.866622,91.540618 91.668708,92.582284 89.606239,93.603119 89.002044,92.853117 87.658295,90.915619 85.574989,87.790619 84.616631,86.20729 83.210383,83.540626 81.356239,79.790619 L 81.293739,79.790619 80.981239,90.728119 63.387489,90.728119 C 63.158319,86.186457 62.835403,78.696881 62.418739,68.259369 62.231237,62.113564 61.804154,53.603156 61.137489,42.728119 66.866649,42.124001 72.09581,41.821918 76.824989,41.821869 94.345788,41.821918 103.1062,48.113578 103.10624,60.696869 z M 88.918739,67.446869 C 88.91871,65.467727 88.085378,64.051062 86.418739,63.196869 85.189547,62.571897 83.647882,62.301064 81.793739,62.384369 L 81.606239,73.071869 C 83.335383,73.071887 84.877048,72.68647 86.231239,71.915619 88.022878,70.915639 88.91871,69.426057 88.918739,67.446869 z"
       style=""
       id="path3973" />
    <path
       d="M 146.79374,65.696869 C 146.7937,73.051053 144.89786,79.269797 141.10624,84.353119 137.12704,89.66562 132.03329,92.321867 125.82499,92.321869 119.42914,92.321867 114.25206,89.644787 110.29374,84.290619 106.56457,79.248964 104.69999,73.051053 104.69999,65.696869 104.69999,57.842735 106.73124,51.676075 110.79374,47.196869 114.62706,42.988583 119.63747,40.884419 125.82499,40.884369 131.90829,40.884419 136.86662,42.999 140.69999,47.228119 144.76245,51.728158 146.7937,57.884402 146.79374,65.696869 z M 131.76249,71.196869 C 131.76246,65.405228 129.80413,62.509397 125.88749,62.509369 122.07497,62.509397 120.16872,65.426061 120.16874,71.259369 120.16872,73.592719 120.66872,75.769801 121.66874,77.790619 122.79372,80.061463 124.17914,81.196878 125.82499,81.196869 127.42913,81.196878 128.8458,80.04063 130.07499,77.728119 131.19996,75.623967 131.76246,73.446886 131.76249,71.196869 z"
       style=""
       id="path3975" />
    <path
       d="M 181.57499,81.259369 C 181.36662,82.092711 180.98121,83.665626 180.41874,85.978119 180.12704,87.332289 179.87704,88.915621 179.66874,90.728119 L 151.38749,90.728119 C 151.28332,85.83229 151.0229,77.769799 150.60624,66.540619 150.3354,60.790649 149.84582,52.853157 149.13749,42.728119 L 170.82499,42.728119 169.04374,82.540619 C 171.06455,82.540627 174.0958,82.321877 178.13749,81.884369 178.97079,81.801044 180.11662,81.592711 181.57499,81.259369 z"
       style=""
       id="path3977" />
    <path
       d="M 215.44999,81.259369 C 215.24162,82.092711 214.85621,83.665626 214.29374,85.978119 214.00204,87.332289 213.75204,88.915621 213.54374,90.728119 L 185.26249,90.728119 C 185.15832,85.83229 184.8979,77.769799 184.48124,66.540619 184.2104,60.790649 183.72082,52.853157 183.01249,42.728119 L 204.69999,42.728119 202.91874,82.540619 C 204.93955,82.540627 207.9708,82.321877 212.01249,81.884369 212.84579,81.801044 213.99162,81.592711 215.44999,81.259369 z"
       style=""
       id="path3979" />
  </g>
  <rect
     style="color:#000000;fill:#ffffff;fill-opacity:1;fill-rule:nonzero;stroke:#000000;stroke-width:5;stroke-linecap:butt;stroke-linejoin:miter;stroke-miterlimit:4;stroke-opacity:1;stroke-dasharray:none;stroke-dashoffset:0;marker:none;visibility:visible;display:inline;overflow:visible;enable-background:accumulate"
     id="rect3981"
     width="83.012497"
     height="206.625"
     x="245.41251"
     y="121.4375" />
  <g
     id="g3997"
     transform="translate(3.2625,-18.85)">
    <rect
       ry="5"
       y="148"
       x="50"
       height="50"
       width="50"
       id="rect3985"
       style="color:#000000;fill:#ffffff;fill-opacity:1;fill-rule:nonzero;stroke:#000000;stroke-width:1;stroke-linecap:butt;stroke-linejoin:miter;stroke-miterlimit:4;stroke-opacity:1;stroke-dasharray:none;stroke-dashoffset:0;marker:none;visibility:visible;display:inline;overflow:visible;enable-background:accumulate" />
    <path
       d="M 65,158 C 65,160.76142 62.761424,163 60,163 57.238576,163 55,160.76142 55,158 55,155.23858 57.238576,153 60,153 62.761424,153 65,155.23858 65,158 z"
       sodipodi:ry="5"
       sodipodi:rx="5"
       sodipodi:cy="158"
       sodipodi:cx="60"
       id="path3987"
       style="color:#000000;fill:#000000;fill-opacity:1;fill-rule:nonzero;stroke:none;stroke-width:1;marker:none;visibility:visible;display:inline;overflow:visible;enable-background:accumulate"
       sodipodi:type="arc" />
    <path
       d="M 95,158 C 95,160.76142 92.761424,163 90,163 87.238576,163 85,160.76142 85,158 85,155.23858 87.238576,153 90,153 92.761424,153 95,155.23858 95,158 z"
       sodipodi:ry="5"
       sodipodi:rx="5"
       sodipodi:cy="158"
       sodipodi:cx="90"
       id="path3989"
       style="color:#000000;fill:#000000;fill-opacity:1;fill-rule:nonzero;stroke:none;stroke-width:1;marker:none;visibility:visible;display:inline;overflow:visible;enable-background:accumulate"
       sodipodi:type="arc" />
    <path
       d="M 80,173 C 80,175.76142 77.761424,178 75,178 72.238576,178 70,175.76142 70,173 70,170.23858 72.238576,168 75,168 77.761424,168 80,170.23858 80,173 z"
       sodipodi:ry="5"
       sodipodi:rx="5"
       sodipodi:cy="173"
       sodipodi:cx="75"
       id="path3991"
       style="color:#000000;fill:#000000;fill-opacity:1;fill-rule:nonzero;stroke:none;stroke-width:1;marker:none;visibility:visible;display:inline;overflow:visible;enable-background:accumulate"
       sodipodi:type="arc" />
    <path
       d="M 65,188 C 65,190.76142 62.761424,193 60,193 57.238576,193 55,190.76142 55,188 55,185.23858 57.238576,183 60,183 62.761424,183 65,185.23858 65,188 z"
       sodipodi:ry="5"
       sodipodi:rx="5"
       sodipodi:cy="188"
       sodipodi:cx="60"
       id="path3993"
       style="color:#000000;fill:#000000;fill-opacity:1;fill-rule:nonzero;stroke:none;stroke-width:1;marker:none;visibility:visible;display:inline;overflow:visible;enable-background:accumulate"
       sodipodi:type="arc" />
    <path
       d="M 95,188 C 95,190.76142 92.761424,193 90,193 87.238576,193 85,190.76142 85,188 85,185.23858 87.238576,183 90,183 92.761424,183 95,185.23858 95,188 z"
       sodipodi:ry="5"
       sodipodi:rx="5"
       sodipodi:cy="188"
       sodipodi:cx="90"
       id="path3995"
       style="color:#000000;fill:#000000;fill-opacity:1;fill-rule:nonzero;stroke:none;stroke-width:1;marker:none;visibility:visible;display:inline;overflow:visible;enable-background:accumulate"
       sodipodi:type="arc" />
  </g>
  <g
     transform="translate(212.825,-11.425)"
     id="g3997-1">
    <rect
       ry="5"
       y="148"
       x="50"
       height="50"
       width="50"
       id="rect3985-7"
       style="color:#000000;fill:#ffffff;fill-opacity:1;fill-rule:nonzero;stroke:#000000;stroke-width:1;stroke-linecap:butt;stroke-linejoin:miter;stroke-miterlimit:4;stroke-opacity:1;stroke-dasharray:none;stroke-dashoffset:0;marker:none;visibility:visible;display:inline;overflow:visible;enable-background:accumulate" />
    <path
       d="M 65,158 C 65,160.76142 62.761424,163 60,163 57.238576,163 55,160.76142 55,158 55,155.23858 57.238576,153 60,153 62.761424,153 65,155.23858 65,158 z"
       sodipodi:ry="5"
       sodipodi:rx="5"
       sodipodi:cy="158"
       sodipodi:cx="60"
       id="path3987-4"
       style="color:#000000;fill:#000000;fill-opacity:1;fill-rule:nonzero;stroke:none;stroke-width:1;marker:none;visibility:visible;display:inline;overflow:visible;enable-background:accumulate"
       sodipodi:type="arc" />
    <path
       d="M 95,158 C 95,160.76142 92.761424,163 90,163 87.238576,163 85,160.76142 85,158 85,155.23858 87.238576,153 90,153 92.761424,153 95,155.23858 95,158 z"
       sodipodi:ry="5"
       sodipodi:rx="5"
       sodipodi:cy="158"
       sodipodi:cx="90"
       id="path3989-0"
       style="color:#000000;fill:#000000;fill-opacity:1;fill-rule:nonzero;stroke:none;stroke-width:1;marker:none;visibility:visible;display:inline;overflow:visible;enable-background:accumulate"
       sodipodi:type="arc" />
    <path
       d="M 80,173 C 80,175.76142 77.761424,178 75,178 72.238576,178 70,175.76142 70,173 70,170.23858 72.238576,168 75,168 77.761424,168 80,170.23858 80,173 z"
       sodipodi:ry="5"
       sodipodi:rx="5"
       sodipodi:cy="173"
       sodipodi:cx="75"
       id="path3991-9"
       style="color:#000000;fill:#000000;fill-opacity:1;fill-rule:nonzero;stroke:none;stroke-width:1;marker:none;visibility:visible;display:inline;overflow:visible;enable-background:accumulate"
       sodipodi:type="arc" />
    <path
       d="M 65,188 C 65,190.76142 62.761424,193 60,193 57.238576,193 55,190.76142 55,188 55,185.23858 57.238576,183 60,183 62.761424,183 65,185.23858 65,188 z"
       sodipodi:ry="5"
       sodipodi:rx="5"
       sodipodi:cy="188"
       sodipodi:cx="60"
       id="path3993-4"
       style="color:#000000;fill:#000000;fill-opacity:1;fill-rule:nonzero;stroke:none;stroke-width:1;marker:none;visibility:visible;display:inline;overflow:visible;enable-background:accumulate"
       sodipodi:type="arc" />
    <path
       d="M 95,188 C 95,190.76142 92.761424,193 90,193 87.238576,193 85,190.76142 85,188 85,185.23858 87.238576,183 90,183 92.761424,183 95,185.23858 95,188 z"
       sodipodi:ry="5"
       sodipodi:rx="5"
       sodipodi:cy="188"
       sodipodi:cx="90"
       id="path3995-8"
       style="color:#000000;fill:#000000;fill-opacity:1;fill-rule:nonzero;stroke:none;stroke-width:1;marker:none;visibility:visible;display:inline;overflow:visible;enable-background:accumulate"
       sodipodi:type="arc" />
  </g>
  <g
     transform="translate(43.8375,55.0125)"
     id="g3997-8">
    <rect
       ry="5"
       y="148"
       x="50"
       height="50"
       width="50"
       id="rect3985-2"
       style="color:#000000;fill:#ffffff;fill-opacity:1;fill-rule:nonzero;stroke:#000000;stroke-width:1;stroke-linecap:butt;stroke-linejoin:miter;stroke-miterlimit:4;stroke-opacity:1;stroke-dasharray:none;stroke-dashoffset:0;marker:none;visibility:visible;display:inline;overflow:visible;enable-background:accumulate" />
    <path
       d="M 65,158 C 65,160.76142 62.761424,163 60,163 57.238576,163 55,160.76142 55,158 55,155.23858 57.238576,153 60,153 62.761424,153 65,155.23858 65,158 z"
       sodipodi:ry="5"
       sodipodi:rx="5"
       sodipodi:cy="158"
       sodipodi:cx="60"
       id="path3987-45"
       style="color:#000000;fill:#000000;fill-opacity:1;fill-rule:nonzero;stroke:none;stroke-width:1;marker:none;visibility:visible;display:inline;overflow:visible;enable-background:accumulate"
       sodipodi:type="arc" />
    <path
       d="M 95,158 C 95,160.76142 92.761424,163 90,163 87.238576,163 85,160.76142 85,158 85,155.23858 87.238576,153 90,153 92.761424,153 95,155.23858 95,158 z"
       sodipodi:ry="5"
       sodipodi:rx="5"
       sodipodi:cy="158"
       sodipodi:cx="90"
       id="path3989-5"
       style="color:#000000;fill:#000000;fill-opacity:1;fill-rule:nonzero;stroke:none;stroke-width:1;marker:none;visibility:visible;display:inline;overflow:visible;enable-background:accumulate"
       sodipodi:type="arc" />
    <path
       d="M 80,173 C 80,175.76142 77.761424,178 75,178 72.238576,178 70,175.76142 70,173 70,170.23858 72.238576,168 75,168 77.761424,168 80,170.23858 80,173 z"
       sodipodi:ry="5"
       sodipodi:rx="5"
       sodipodi:cy="173"
       sodipodi:cx="75"
       id="path3991-1"
       style="color:#000000;fill:#000000;fill-opacity:1;fill-rule:nonzero;stroke:none;stroke-width:1;marker:none;visibility:visible;display:inline;overflow:visible;enable-background:accumulate"
       sodipodi:type="arc" />
    <path
       d="M 65,188 C 65,190.76142 62.761424,193 60,193 57.238576,193 55,190.76142 55,188 55,185.23858 57.238576,183 60,183 62.761424,183 65,185.23858 65,188 z"
       sodipodi:ry="5"
       sodipodi:rx="5"
       sodipodi:cy="188"
       sodipodi:cx="60"
       id="path3993-7"
       style="color:#000000;fill:#000000;fill-opacity:1;fill-rule:nonzero;stroke:none;stroke-width:1;marker:none;visibility:visible;display:inline;overflow:visible;enable-background:accumulate"
       sodipodi:type="arc" />
    <path
       d="M 95,188 C 95,190.76142 92.761424,193 90,193 87.238576,193 85,190.76142 85,188 85,185.23858 87.238576,183 90,183 92.761424,183 95,185.23858 95,188 z"
       sodipodi:ry="5"
       sodipodi:rx="5"
       sodipodi:cy="188"
       sodipodi:cx="90"
       id="path3995-1"
       style="color:#000000;fill:#000000;fill-opacity:1;fill-rule:nonzero;stroke:none;stroke-width:1;marker:none;visibility:visible;display:inline;overflow:visible;enable-background:accumulate"
       sodipodi:type="arc" />
  </g>
  <g
     transform="translate(106.6125,112.5)"
     id="g3997-15">
    <rect
       ry="5"
       y="148"
       x="50"
       height="50"
       width="50"
       id="rect3985-27"
       style="color:#000000;fill:#ffffff;fill-opacity:1;fill-rule:nonzero;stroke:#000000;stroke-width:1;stroke-linecap:butt;stroke-linejoin:miter;stroke-miterlimit:4;stroke-opacity:1;stroke-dasharray:none;stroke-dashoffset:0;marker:none;visibility:visible;display:inline;overflow:visible;enable-background:accumulate" />
    <path
       d="M 65,158 C 65,160.76142 62.761424,163 60,163 57.238576,163 55,160.76142 55,158 55,155.23858 57.238576,153 60,153 62.761424,153 65,155.23858 65,158 z"
       sodipodi:ry="5"
       sodipodi:rx="5"
       sodipodi:cy="158"
       sodipodi:cx="60"
       id="path3987-6"
       style="color:#000000;fill:#000000;fill-opacity:1;fill-rule:nonzero;stroke:none;stroke-width:1;marker:none;visibility:visible;display:inline;overflow:visible;enable-background:accumulate"
       sodipodi:type="arc" />
    <path
       d="M 95,158 C 95,160.76142 92.761424,163 90,163 87.238576,163 85,160.76142 85,158 85,155.23858 87.238576,153 90,153 92.761424,153 95,155.23858 95,158 z"
       sodipodi:ry="5"
       sodipodi:rx="5"
       sodipodi:cy="158"
       sodipodi:cx="90"
       id="path3989-1"
       style="color:#000000;fill:#000000;fill-opacity:1;fill-rule:nonzero;stroke:none;stroke-width:1;marker:none;visibility:visible;display:inline;overflow:visible;enable-background:accumulate"
       sodipodi:type="arc" />
    <path
       d="M 80,173 C 80,175.76142 77.761424,178 75,178 72.238576,178 70,175.76142 70,173 70,170.23858 72.238576,168 75,168 77.761424,168 80,170.23858 80,173 z"
       sodipodi:ry="5"
       sodipodi:rx="5"
       sodipodi:cy="173"
       sodipodi:cx="75"
       id="path3991-4"
       style="color:#000000;fill:#000000;fill-opacity:1;fill-rule:nonzero;stroke:none;stroke-width:1;marker:none;visibility:visible;display:inline;overflow:visible;enable-background:accumulate"
       sodipodi:type="arc" />
    <path
       d="M 65,188 C 65,190.76142 62.761424,193 60,193 57.238576,193 55,190.76142 55,188 55,185.23858 57.238576,183 60,183 62.761424,183 65,185.23858 65,188 z"
       sodipodi:ry="5"
       sodipodi:rx="5"
       sodipodi:cy="188"
       sodipodi:cx="60"
       id="path3993-2"
       style="color:#000000;fill:#000000;fill-opacity:1;fill-rule:nonzero;stroke:none;stroke-width:1;marker:none;visibility:visible;display:inline;overflow:visible;enable-background:accumulate"
       sodipodi:type="arc" />
    <path
       d="M 95,188 C 95,190.76142 92.761424,193 90,193 87.238576,193 85,190.76142 85,188 85,185.23858 87.238576,183 90,183 92.761424,183 95,185.23858 95,188 z"
       sodipodi:ry="5"
       sodipodi:rx="5"
       sodipodi:cy="188"
       sodipodi:cx="90"
       id="path3995-3"
       style="color:#000000;fill:#000000;fill-opacity:1;fill-rule:nonzero;stroke:none;stroke-width:1;marker:none;visibility:visible;display:inline;overflow:visible;enable-background:accumulate"
       sodipodi:type="arc" />
  </g>
  <g
     transform="translate(16.7125,124.275)"
     id="g3997-2">
    <rect
       ry="5"
       y="148"
       x="50"
       height="50"
       width="50"
       id="rect3985-21"
       style="color:#000000;fill:#ffffff;fill-opacity:1;fill-rule:nonzero;stroke:#000000;stroke-width:1;stroke-linecap:butt;stroke-linejoin:miter;stroke-miterlimit:4;stroke-opacity:1;stroke-dasharray:none;stroke-dashoffset:0;marker:none;visibility:visible;display:inline;overflow:visible;enable-background:accumulate" />
    <path
       d="M 65,158 A 5,5 0 1 1 55,158 5,5 0 1 1 65,158 z"
       sodipodi:ry="5"
       sodipodi:rx="5"
       sodipodi:cy="158"
       sodipodi:cx="60"
       id="path3987-68"
       style="color:#000000;fill:#000000;fill-opacity:1;fill-rule:nonzero;stroke:none;stroke-width:1;marker:none;visibility:visible;display:inline;overflow:visible;enable-background:accumulate"
       sodipodi:type="arc" />
    <path
       d="M 95,158 A 5,5 0 1 1 85,158 5,5 0 1 1 95,158 z"
       sodipodi:ry="5"
       sodipodi:rx="5"
       sodipodi:cy="158"
       sodipodi:cx="90"
       id="path3989-57"
       style="color:#000000;fill:#000000;fill-opacity:1;fill-rule:nonzero;stroke:none;stroke-width:1;marker:none;visibility:visible;display:inline;overflow:visible;enable-background:accumulate"
       sodipodi:type="arc" />
    <path
       d="M 80,173 A 5,5 0 1 1 70,173 5,5 0 1 1 80,173 z"
       sodipodi:ry="5"
       sodipodi:rx="5"
       sodipodi:cy="173"
       sodipodi:cx="75"
       id="path3991-6"
       style="color:#000000;fill:#000000;fill-opacity:1;fill-rule:nonzero;stroke:none;stroke-width:1;marker:none;visibility:visible;display:inline;overflow:visible;enable-background:accumulate"
       sodipodi:type="arc" />
    <path
       d="M 65,188 A 5,5 0 1 1 55,188 5,5 0 1 1 65,188 z"
       sodipodi:ry="5"
       sodipodi:rx="5"
       sodipodi:cy="188"
       sodipodi:cx="60"
       id="path3993-1"
       style="color:#000000;fill:#000000;fill-opacity:1;fill-rule:nonzero;stroke:none;stroke-width:1;marker:none;visibility:visible;display:inline;overflow:visible;enable-background:accumulate"
       sodipodi:type="arc" />
    <path
       d="M 95,188 A 5,5 0 1 1 85,188 5,5 0 1 1 95,188 z"
       sodipodi:ry="5"
       sodipodi:rx="5"
       sodipodi:cy="188"
       sodipodi:cx="90"
       id="path3995-89"
       style="color:#000000;fill:#000000;fill-opacity:1;fill-rule:nonzero;stroke:none;stroke-width:1;marker:none;visibility:visible;display:inline;overflow:visible;enable-background:accumulate"
       sodipodi:type="arc" />
  </g>
</svg>

<svg xmlns="http://www.w3.org/2000/svg" viewBox="0 0 348 348" fill="none"><path d="M5 5.8h337v337.6H5z" stroke-width="2" stroke="#000"/><path d="M282.7 40.6c0-8.4 7-15.2 15.6-15.2 4 0 8 1.6 11 4.4 3 3 4.6 6.7 4.6 10.8 0 8.3-7 15-15.8 15-8.6 0-15.6-6.7-15.6-15z" stroke-width="2" stroke="#000"/><rect width="228" height="76.5" x="24.3" y="29" ry="0" color="#000" stroke="#000" stroke-width="5" overflow="visible"/><path d="M103 60.7c0 3.8-1 7.2-3 10.2-2 2.4-4.4 4.2-7.2 5.3.6 1 2 3 4.4 6l5.5 5.4c-1 .3-3.2 1.2-6.5 2.7l-6.6 3c-.6-.6-2-2.6-4-5.7-1-1.6-2.4-4.3-4.2-8l-.4 11H63.4l-1-22.5c-.2-6.2-.6-14.7-1.3-25.6 6-.6 11-1 16-1 17.4 0 26.2 6.4 26.2 19zm-14 6.7c0-2-1-3.3-2.6-4.2-1.2-.6-2.8-1-4.6-.8L81.6 73c1.7 0 3.3-.3 4.6-1 1.8-1 2.7-2.6 2.7-4.6zm57.8-1.7c0 7.4-2 13.6-5.7 18.7-4 5.3-9 8-15 8-6.5 0-11.6-2.8-15.6-8-3.7-5.2-5.6-11.3-5.6-18.7 0-8 2-14 6-18.5 4-4.2 9-6.3 15-6.3 6.2 0 11.2 2 15 6 4 4.6 6 10.8 6 18.6zm-15 5.5c0-5.8-2-8.7-6-8.7-3.7 0-5.6 3-5.6 8.8 0 2.3.5 4.5 1.5 6.5 1 2.3 2.5 3.4 4 3.4 1.7 0 3-1.2 4.4-3.5 1.3-2 2-4.3 2-6.5zm49.8 10l-1.2 4.8c-.3 1.3-.5 3-.7 4.7h-28.3c0-5-.4-13-.8-24.2L149 42.7h22l-2 39.8c2 0 5-.2 9-.6l3.6-.8zm33.8 0l-1 4.8c-.4 1.3-.6 3-1 4.7h-28l-1-24.2c-.2-5.7-.7-13.6-1.4-23.8h21.7L203 82.5c2 0 5-.2 9-.6l3.4-.8z" style="text-align:start;line-height:125%;-inkscape-font-specification:Showcard Gothic" font-size="64" letter-spacing="0" word-spacing="0" fill="#000" font-family="Showcard Gothic"/><path color="#000" stroke="#000" stroke-width="5" overflow="visible" d="M245.4 121.4h83V328h-83z"/><g transform="translate(3.263 -18.85)" color="#000"><rect ry="5" y="148" x="50" height="50" width="50" stroke="#000" overflow="visible"/><path d="M65 158c0 2.8-2.2 5-5 5s-5-2.2-5-5 2.2-5 5-5 5 2.2 5 5zm30 0c0 2.8-2.2 5-5 5s-5-2.2-5-5 2.2-5 5-5 5 2.2 5 5zm-15 15c0 2.8-2.2 5-5 5s-5-2.2-5-5 2.2-5 5-5 5 2.2 5 5zm-15 15c0 2.8-2.2 5-5 5s-5-2.2-5-5 2.2-5 5-5 5 2.2 5 5zm30 0c0 2.8-2.2 5-5 5s-5-2.2-5-5 2.2-5 5-5 5 2.2 5 5z" fill="#000" overflow="visible"/></g><g transform="translate(212.825 -11.425)" color="#000"><rect ry="5" y="148" x="50" height="50" width="50" stroke="#000" overflow="visible"/><path d="M65 158c0 2.8-2.2 5-5 5s-5-2.2-5-5 2.2-5 5-5 5 2.2 5 5zm30 0c0 2.8-2.2 5-5 5s-5-2.2-5-5 2.2-5 5-5 5 2.2 5 5zm-15 15c0 2.8-2.2 5-5 5s-5-2.2-5-5 2.2-5 5-5 5 2.2 5 5zm-15 15c0 2.8-2.2 5-5 5s-5-2.2-5-5 2.2-5 5-5 5 2.2 5 5zm30 0c0 2.8-2.2 5-5 5s-5-2.2-5-5 2.2-5 5-5 5 2.2 5 5z" fill="#000" overflow="visible"/></g><g transform="translate(43.837 55.013)" color="#000"><rect ry="5" y="148" x="50" height="50" width="50" stroke="#000" overflow="visible"/><path d="M65 158c0 2.8-2.2 5-5 5s-5-2.2-5-5 2.2-5 5-5 5 2.2 5 5zm30 0c0 2.8-2.2 5-5 5s-5-2.2-5-5 2.2-5 5-5 5 2.2 5 5zm-15 15c0 2.8-2.2 5-5 5s-5-2.2-5-5 2.2-5 5-5 5 2.2 5 5zm-15 15c0 2.8-2.2 5-5 5s-5-2.2-5-5 2.2-5 5-5 5 2.2 5 5zm30 0c0 2.8-2.2 5-5 5s-5-2.2-5-5 2.2-5 5-5 5 2.2 5 5z" fill="#000" overflow="visible"/></g><g transform="translate(106.612 112.5)" color="#000"><rect ry="5" y="148" x="50" height="50" width="50" stroke="#000" overflow="visible"/><path d="M65 158c0 2.8-2.2 5-5 5s-5-2.2-5-5 2.2-5 5-5 5 2.2 5 5zm30 0c0 2.8-2.2 5-5 5s-5-2.2-5-5 2.2-5 5-5 5 2.2 5 5zm-15 15c0 2.8-2.2 5-5 5s-5-2.2-5-5 2.2-5 5-5 5 2.2 5 5zm-15 15c0 2.8-2.2 5-5 5s-5-2.2-5-5 2.2-5 5-5 5 2.2 5 5zm30 0c0 2.8-2.2 5-5 5s-5-2.2-5-5 2.2-5 5-5 5 2.2 5 5z" fill="#000" overflow="visible"/></g><g transform="translate(16.712 124.275)" color="#000"><rect ry="5" y="148" x="50" height="50" width="50" stroke="#000" overflow="visible"/><path d="M65 158a5 5 0 1 1-10 0 5 5 0 1 1 10 0zm30 0a5 5 0 1 1-10 0 5 5 0 1 1 10 0zm-15 15a5 5 0 1 1-10 0 5 5 0 1 1 10 0zm-15 15a5 5 0 1 1-10 0 5 5 0 1 1 10 0zm30 0a5 5 0 1 1-10 0 5 5 0 1 1 10 0z" fill="#000" overflow="visible"/></g></svg>
